src/images/icons/folder.svg

<?xml version="1.0" encoding="utf-8"?>
<!-- Generated by IcoMoon.io -->
<!DOCTYPE svg PUBLIC "-//W3C//DTD SVG 1.1//EN" "http://www.w3.org/Graphics/SVG/1.1/DTD/svg11.dtd">
<svg version="1.1" xmlns="http://www.w3.org/2000/svg" xmlns:xlink="http://www.w3.org/1999/xlink" width="512" height="512" viewBox="0 0 512 512">
<path d="M455.11 128h-103.11c-9.5 0-31.928-45.723-38.56-59.473-15.474-32.118-32.995-68.527-68.365-68.527h-189.131c-30.85 0-55.946 26.852-55.946 59.847v395.264c0 31.37 25.519 56.889 56.889 56.889h398.222c31.37 0 56.889-25.519 56.889-56.889v-270.222c0-31.338-25.519-56.889-56.889-56.889zM64 66.959c0 0 0.347-2.374 0.662-2.959h178.112c5.564 5.853 14.365 31.809 19.772 43.417 3.113 6.665 6.349 13.657 9.87 20.583h-208.416v-61.041zM448 448h-383.968l-0.032-256h384v256z"></path>
</svg>

<?xml version="1.0" encoding="utf-8"?>
<!-- Generator: Adobe Illustrator 19.2.1, SVG Export Plug-In . SVG Version: 6.00 Build 0)  -->
<svg version="1.1" id="Layer_1" xmlns="http://www.w3.org/2000/svg" xmlns:xlink="http://www.w3.org/1999/xlink" x="0px" y="0px"
	 viewBox="0 0 512 512" style="enable-background:new 0 0 512 512;" xml:space="preserve">
<path class="lexicon-icon-body" fill="none" d="M455.1,128H352c-9.5,0-31.9-45.7-38.6-59.5C298,36.4,280.4,0,245.1,0H55.9C25.1,0,0,26.9,0,59.8v395.3
	C0,486.5,25.5,512,56.9,512h398.2c31.4,0,56.9-25.5,56.9-56.9V184.9C512,153.6,486.5,128,455.1,128L455.1,128z"/>
<path class="lexicon-icon-outline" d="M455.1,128H352c-9.5,0-31.9-45.7-38.6-59.5C298,36.4,280.4,0,245.1,0H55.9C25.1,0,0,26.9,0,59.8v395.3
	C0,486.5,25.5,512,56.9,512h398.2c31.4,0,56.9-25.5,56.9-56.9V184.9C512,153.6,486.5,128,455.1,128L455.1,128z M64,67
	c0,0,0.3-2.4,0.7-3h178.1c5.6,5.9,14.4,31.8,19.8,43.4c3.1,6.7,6.3,13.7,9.9,20.6H64L64,67L64,67z M448,448H64l0-256h384V448z"/>
</svg>
